src/assets/images/icons/coffee.svg

<svg width="24" height="24" viewBox="0 0 24 24" fill="none" xmlns="http://www.w3.org/2000/svg">
<path d="M18 8H19C20.0609 8 21.0783 8.42143 21.8284 9.17157C22.5786 9.92172 23 10.9391 23 12C23 13.0609 22.5786 14.0783 21.8284 14.8284C21.0783 15.5786 20.0609 16 19 16H18M18 8H2V17C2 18.0609 2.42143 19.0783 3.17157 19.8284C3.92172 20.5786 4.93913 21 6 21H14C15.0609 21 16.0783 20.5786 16.8284 19.8284C17.5786 19.0783 18 18.0609 18 17V8ZM6 1V4M10 1V4M14 1V4" stroke="#181D27" stroke-width="2" stroke-linecap="round" stroke-linejoin="round"/>
</svg>

<svg xmlns="http://www.w3.org/2000/svg" fill="none" viewBox="0 0 24 24"><path stroke="#181D27" stroke-linecap="round" stroke-linejoin="round" stroke-width="2" d="M18 8h1a4 4 0 1 1 0 8h-1m0-8H2v9a4 4 0 0 0 4 4h8a4 4 0 0 0 4-4zM6 1v3m4-3v3m4-3v3"/></svg>
